X: 276
T: Muskrat
C: BB 3/09
N: 132269 
L: 1/8
M: 4/4
R: hornpipe 
Q: 1/4=170
K: Am
AB | "Am"c2 Ac "Dm"d2 cd | "Am"edef "G"gedB | "C"cGEG "F"FAdc | "G"BcBG "Am"A2 AB|
"Am"c2 Ac "Dm"d2 cd | "Am"eAcA "G"dBGB | "C"cGEG "F"FAdc | "G"BcBG "Am"A2 :|
AB | "C"c2 Gc EcGc | "Dm"d2 AF DFAd | "Am"edef "G"gfed | "Am"cBce "G"dBGB |
"C"c2 Gc EcGc | "Dm"d2 AF DFAd | "Am"ecBc "Dm"fd^cd | "G"BcBG  "Am"A2 :|
%%%%%%%%%%%%%%
